public/figma-home/group74.svg

<svg preserveAspectRatio="none" width="100%" height="100%" overflow="visible" style="display: block;" viewBox="0 0 19.8 13.9966" fill="none" xmlns="http://www.w3.org/2000/svg">
<g id="Group 73">
<path id="YouTube" d="M10.3387 13.9782L6.27646 13.9023C4.96122 13.8758 3.6427 13.9286 2.35324 13.6546C0.391672 13.2451 0.252708 11.2372 0.107296 9.55291C-0.0930658 7.18507 -0.0154997 4.77425 0.362609 2.42618C0.576064 1.10866 1.4161 0.322489 2.71518 0.236939C7.10053 -0.0735363 11.515 -0.0367417 15.8907 0.108106C16.3528 0.121385 16.8181 0.19396 17.2738 0.276571C19.5231 0.679489 19.5779 2.95489 19.7237 4.87034C19.8691 6.80557 19.8078 8.75072 19.5298 10.6728C19.3068 12.2642 18.8802 13.5987 17.0798 13.7275C14.8241 13.896 12.6201 14.0316 10.358 13.9885C10.3581 13.9782 10.3451 13.9782 10.3387 13.9782ZM7.95048 9.94924C9.65038 8.95183 11.3179 7.97104 13.008 6.98032C11.305 5.9829 9.64066 5.00212 7.95048 4.01139V9.94924Z" fill="var(--fill-0, white)"/>
</g>
</svg>

<svg xmlns="http://www.w3.org/2000/svg" fill="none" overflow="visible" preserveAspectRatio="none" style="display:block" viewBox="0 0 19.8 13.997"><path fill="var(--fill-0, white)" d="m10.339 13.978-4.063-.076c-1.315-.026-2.633.027-3.923-.247-1.961-.41-2.1-2.418-2.246-4.102-.2-2.368-.122-4.779.256-7.127C.576 1.11 1.416.322 2.715.236c4.386-.31 8.8-.273 13.176-.128a9 9 0 0 1 1.383.169c2.25.402 2.304 2.678 2.45 4.593.145 1.936.084 3.88-.194 5.803-.223 1.591-.65 2.926-2.45 3.054-2.256.169-4.46.305-6.722.261 0-.01-.013-.01-.02-.01M7.95 9.95l5.058-2.969c-1.703-.997-3.367-1.978-5.058-2.969z"/></svg>
